X:6473
T:The 17th of May
O:england
M:C
C:
S:Radford
N:
A:Adderbury
R:Reel
%P:Ch A(AB$^3$)$^4$
P:A A(AB3)4
K:G
I:speed 400
P:A
|:\
GABc d2 d2 | g2 g2 e2 e2 | d4    B4    | AGAB G2 z2 :|\
P:B
gggg e2 d2 | gggg  e4    | gggg  e2 e2 | egfe d4    |\
GABc d2 d2 | g2 g2 e2 e2 | d4    B4    | AGAB G4    ||


